packages/icons/svgs/duotone/Source=calendar-date.svg

<svg width="24" height="24" viewBox="0 0 24 24" fill="none" xmlns="http://www.w3.org/2000/svg">
<path fill-rule="evenodd" clip-rule="evenodd" d="M4 12C4 11.4477 4.44772 11 5 11H7C7.55228 11 8 11.4477 8 12V13C8 13.5523 7.55228 14 7 14H5C4.44772 14 4 13.5523 4 13V12Z" fill="black" style="fill:black;fill-opacity:1;"/>
<path fill-rule="evenodd" clip-rule="evenodd" d="M10 12C10 11.4477 10.4477 11 11 11H13C13.5523 11 14 11.4477 14 12V13C14 13.5523 13.5523 14 13 14H11C10.4477 14 10 13.5523 10 13V12Z" fill="black" style="fill:black;fill-opacity:1;"/>
<path fill-rule="evenodd" clip-rule="evenodd" d="M4 17C4 16.4477 4.44772 16 5 16H7C7.55228 16 8 16.4477 8 17V18C8 18.5523 7.55228 19 7 19H5C4.44772 19 4 18.5523 4 18V17Z" fill="black" style="fill:black;fill-opacity:1;"/>
<path fill-rule="evenodd" clip-rule="evenodd" d="M10 17C10 16.4477 10.4477 16 11 16H13C13.5523 16 14 16.4477 14 17V18C14 18.5523 13.5523 19 13 19H11C10.4477 19 10 18.5523 10 18V17Z" fill="black" style="fill:black;fill-opacity:1;"/>
<path fill-rule="evenodd" clip-rule="evenodd" d="M16 12C16 11.4477 16.4477 11 17 11H19C19.5523 11 20 11.4477 20 12V13C20 13.5523 19.5523 14 19 14H17C16.4477 14 16 13.5523 16 13V12Z" fill="black" style="fill:black;fill-opacity:1;"/>
<path fill-rule="evenodd" clip-rule="evenodd" d="M6 0C6.55228 0 7 0.447715 7 1V4C7 4.55228 6.55228 5 6 5C5.44772 5 5 4.55228 5 4V1C5 0.447715 5.44772 0 6 0Z" fill="black" style="fill:black;fill-opacity:1;"/>
<path fill-rule="evenodd" clip-rule="evenodd" d="M18 0C18.5523 0 19 0.447715 19 1V4C19 4.55228 18.5523 5 18 5C17.4477 5 17 4.55228 17 4V1C17 0.447715 17.4477 0 18 0Z" fill="black" style="fill:black;fill-opacity:1;"/>
<path opacity="0.5" fill-rule="evenodd" clip-rule="evenodd" d="M2 5C2 4.44772 2.44772 4 3 4H21C21.5523 4 22 4.44772 22 5V7H2V5ZM0 8V5C0 3.34315 1.34315 2 3 2H21C22.6569 2 24 3.34315 24 5V8V20C24 21.6569 22.6569 23 21 23H3C1.34315 23 0 21.6569 0 20V8ZM22 9V20C22 20.5523 21.5523 21 21 21H3C2.44772 21 2 20.5523 2 20V9H22Z" fill="black" style="fill:black;fill-opacity:1;"/>
</svg>

<svg xmlns="http://www.w3.org/2000/svg" width="24" height="24" viewBox="0 0 24 24"><path fill-rule="evenodd" d="M4 12a1 1 0 0 1 1-1h2a1 1 0 0 1 1 1v1a1 1 0 0 1-1 1H5a1 1 0 0 1-1-1zm6 0a1 1 0 0 1 1-1h2a1 1 0 0 1 1 1v1a1 1 0 0 1-1 1h-2a1 1 0 0 1-1-1zm-6 5a1 1 0 0 1 1-1h2a1 1 0 0 1 1 1v1a1 1 0 0 1-1 1H5a1 1 0 0 1-1-1zm6 0a1 1 0 0 1 1-1h2a1 1 0 0 1 1 1v1a1 1 0 0 1-1 1h-2a1 1 0 0 1-1-1zm6-5a1 1 0 0 1 1-1h2a1 1 0 0 1 1 1v1a1 1 0 0 1-1 1h-2a1 1 0 0 1-1-1zM6 0a1 1 0 0 1 1 1v3a1 1 0 0 1-2 0V1a1 1 0 0 1 1-1m12 0a1 1 0 0 1 1 1v3a1 1 0 1 1-2 0V1a1 1 0 0 1 1-1" clip-rule="evenodd"/><path fill-rule="evenodd" d="M2 5a1 1 0 0 1 1-1h18a1 1 0 0 1 1 1v2H2zM0 8V5a3 3 0 0 1 3-3h18a3 3 0 0 1 3 3v15a3 3 0 0 1-3 3H3a3 3 0 0 1-3-3zm22 1v11a1 1 0 0 1-1 1H3a1 1 0 0 1-1-1V9z" clip-rule="evenodd" opacity=".5"/></svg>
